X:339
T:
R:polska
S:Efter Karl Odin, Kaupe i Fröjel (1877).
O:Gotland, Fröjel
M:3/4
L:1/16
K:D
AdcB B2A2 A4|cBAG G2F2 F4|FDEF GABc d2ef|gfge dcdB B2A2|
AdcB B2A2 A4|cBAG G2F2 F4|FDEF GABc B2g2|fedc [c4e4] d4::
edcB B2A2A2A2|A2ce a2ae dcBA|ABcd c2A2A2A2|A2ce g2ge dcBA|
AdcB B2A2 A4|cBAG G2F2 F4|FDEF GABc cdef|edcB B4 A4|
FDEF GABc defg|bgec d4 D4:|

